_inc/images/systems/logos/x68000.svg

<svg viewBox="0 0 264 45" xmlns="http://www.w3.org/2000/svg">
    <path d="m25.334.029 59.108 102.367h80.219L105.553.029H25.334ZM38 6.426h61.219l50.484 87.44H88.481L38 6.426Zm8.467 48.477L0 102.396h73.888L46.467 54.903Zm-2.486 13.373 17.241 27.723H16.888l27.093-27.723Zm97.536-20.788L187.984-.001h-73.888l27.421 47.489Zm2.486-13.366L126.761 6.398h44.331l-27.089 27.724Zm56.722 32.56c-.112-.152-.351 1.157-.716 3.916-.366 2.758-.571 4.812-.607 6.149.38 2.86 1.344 2.881 2.909 4.323 1.302.81 2.413.583 5.542.938 3.133.363 21.773.369 24.927.015 3.144-.347 5.775-.781 7.494-1.925 3.35-2.124 5.621-5.185 6.812-13.443.851-4.458 1.223-5.603 1.123-7.705-.127-2.817-1.546-4.709-4.262-5.66-2.715-.953-6.678-.492-11.083-.492h-8.699c-9.352 0-15.016.042-17.816 1.999-3.19 2.151-4.455 5.017-5.624 11.885Zm66.871-32.904h-13.243c.444-3.223.323-5.378.233-7.346-.091-2.005-.296-3.763-1.196-4.407-1.885-1.641-9.57-1.495-17.747-1.495h-7.648c-8.134 0-12.892-.048-15.363 1.801-3.193 2.508-5.123 6.347-5.79 11.51l-2.154 8.877s1.435-2.176 4.658-2.523c5.657-.62 15.079-.043 18.619-.043 8.627.15 15.756-.363 20.392.402 4.637.779 9.685 1.786 12.098 4.431 2.133 2.21 3.299 5.603 3.51 10.172.142 3.015-.45 7.943-1.767 14.766-.737 3.293-1.595 6.265-2.58 8.902a28.076 28.076 0 0 1-4.063 7.357c-1.721 2.261-3.775 6.177-6.162 7.486-3.763 1.941-8.59 1.813-12.955 2.331-4.362.519-11.358 0-18.287 0-6.186 0-12.463.143-16.967-.396-4.51-.541-8.225-1.859-11.146-3.946-3.568-2.625-5.573-6.961-6.002-13.003-.021-3.122.323-6.668 1.033-10.656l7.382-39.134c1.402-8.569 3.997-15.249 10.168-19.231 3.434-2.16 7.6-3.589 12.499-4.285 4.903-.705 12.989-1.052 20.045-1.052h10.85c7.377 0 9.431.995 14.602 2.978 5.171 1.984 7.896 5.941 8.171 11.88.085 1.733-.317 9.454-1.19 14.624Zm50.883-16.974c-8.703 0-16.629.4-19.547 1.197-2.852.802-4.64.732-5.927 2.792-1.28 2.063-2.096 4.223-2.446 6.491-.354 2.261-.671 5.303-.946 9.114.275 2.289 1 3.866 2.175 4.718 2.251 1.438 10.14 1.566 20.386 1.566 9.177 0 16.022-.193 19.61-1.764 1.52-.604 2.831-1.968 3.927-4.086 1.106-2.127 1.773-3.678 2.556-7.678.435-2.423.625-4.471.592-6.155-.052-2.142-.707-3.564-1.967-4.275-1.383-.766-3.504-1.279-6.352-1.536-2.858-.255-6.875-.384-12.061-.384Zm22.213 31.749c5.456 2.261 5.456 7.58 5.598 13.699.021.863.223 5.516-.058 7.131-.281 1.605-.19 2.845-.287 3.363-1.205 5.615-1.598 8.09-3.477 11.41-1.878 3.326-2.984 5.707-6.261 7.486-2.858 1.635-6.483 2.771-10.866 3.405-4.392.632-12.082.952-18.857.952h-8.754c-7.579 0-13.506-.277-17.783-.83-4.271-.555-6.79-2.547-9.303-4.87-2.372-2.09-4.622-7.166-5.012-12.057.127-2.282.529-3.448 1.197-7.748.882-3.973 1.09-7.175 1.788-9.307.698-2.124 2.09-4.629 3.625-6.583 1.525-1.947 3.784-3.377 6.461-4.919 1.646-.952 2.138-1.315.456-2.737-1.852-1.557-2.344-3.015-2.864-4.92-.269-.595-.408-6.396-.438-6.587.819-13.245 4.25-19.991 10.394-25.088 3.61-3.128 5.202-4.984 13.21-5.56 4.108-.336 15.375-.497 21.129-.497 7.938 0 15.656.17 18.942.513 2.888.423 5.392 1.049 7.531 1.867 2.142.824 1.921 2.224 3.552 4.208 1.432 1.828 2.19 4.727 2.284 8.694.06 2.737-.115 5.59-.535 8.566a36.367 36.367 0 0 1-2.302 8.606c-1.111 2.761-2.555 4.967-4.328 6.624-2.223 2.445-1.912 4.16-4.857 5.133-.632.214-.97.065-.955-.036.006-.08.26-.132.77.082Zm-31.094 5.907c-5.594 0-11.315-.021-14.333.322-3.018.341-5.489.994-7.425 1.956-1.779.808-3.208 2.273-4.292 4.394-1.091 2.124-2.048 5.081-2.885 8.871-.71 4.394-.619 5.267-.752 6.546.269 2.331.752 3.704 2.498 4.479 1.752.775 4.271 2.128 7.739 2.277 2.646.287 9.551.433 16.484.433 7.198 0 12.84.504 16.746-.967 1.843-.819 3.875-1.047 5.044-3.149 1.176-2.101 1.683-4.273 2.577-8.326.71-3.1 1.048-5.529 1.006-7.293-.048-2.005-.604-5.666-1.683-6.713-.891-1.016-2.884-1.77-5.965-2.268-3.084-.503-8.467-.562-14.759-.562Zm75.89 41.539c-7.892 0-16.266-.506-20.905-1.513-4.637-1.011-8.005-2.784-10.126-5.319-2.615-2.973-2.132-7.218-2.498-13.025.154-4.647.734-9.304 1.471-13.682l4.779-25.366c1-5.438 2.414-10.357 4.25-14.763 1.831-4.401 4.413-8.072 7.733-10.998 1.903-1.856 4.398-3.321 7.488-4.41 3.084-1.08 6.603-1.791 10.542-2.123 3.933-.337 8.775-.507 14.508-.507 4.335 0 8.235.149 11.69.448 3.462.299 6.495.84 9.104 1.63 2.613.787 4.827 1.968 6.643 3.53 3.295 3.024 5.017 7.779 5.165 14.27.064 2.615-.329 7.107-1.175 13.479l-4.875 25.477c-2.637 14.48-5.794 23.986-13.675 28.521-3.199 1.791-7.05 2.963-11.56 3.518-4.513.556-12.103.833-18.559.833Zm14.956-78.575c-6.017 0-10.322.116-12.914.341-2.588.22-4.818.705-6.69 1.453a12.294 12.294 0 0 0-3.873 2.542c-1.139 1.111-2.277 2.966-3.413 5.56-1.13 2.603-2.124 3.976-2.969 8.367l-5.404 28.969c-.617 4.287-1.006 5.637-1.154 8.319.163 2.402.556 4.159 1.196 5.273.64 1.117 1.592 2.005 2.836 2.667 1.589.83 3.619 1.365 6.087 1.599 2.471.235 6.546.355 12.225.355 6.902 0 12.031-.215 15.408-.627 3.38-.417 5.938-1.379 7.684-2.871 3.223-2.927 5.081-7.305 6.981-16.426l4.996-26.708c.725-5.105 1.054-6.839 1-9.472-.085-3.647-.211-5.551-1.779-6.674-1.507-1.154-3.619-1.883-6.328-2.197-2.716-.315-7.338-.47-13.889-.47Zm67.375 78.575c-7.893 0-16.266-.506-20.906-1.513-4.636-1.011-8.004-2.784-10.125-5.319-2.616-2.973-2.132-7.218-2.498-13.025.157-4.647.731-9.304 1.471-13.682l4.779-25.366c1-5.438 2.413-10.357 4.25-14.763 1.83-4.401 4.413-8.072 7.736-10.998 1.9-1.856 4.398-3.321 7.485-4.41 3.084-1.08 6.6-1.791 10.542-2.123 3.933-.337 8.775-.507 14.508-.507 4.335 0 8.234.149 11.69.448 3.462.299 6.494.84 9.107 1.63 2.61.787 4.824 1.968 6.639 3.53 3.296 3.024 5.018 7.779 5.169 14.27.063 2.615-.332 7.107-1.178 13.479l-4.876 25.477c-2.637 14.48-5.79 23.986-13.671 28.521-3.205 1.791-7.05 2.963-11.563 3.518-4.513.556-12.104.833-18.559.833Zm14.955-78.575c-6.017 0-10.324.116-12.913.341-2.589.22-4.821.705-6.694 1.453a12.322 12.322 0 0 0-3.869 2.542c-1.139 1.111-2.278 2.966-3.413 5.56-1.13 2.603-2.124 3.976-2.97 8.367l-5.404 28.969c-.619 4.287-1.006 5.637-1.154 8.319.164 2.402.556 4.159 1.197 5.273.64 1.117 1.592 2.005 2.836 2.667 1.589.83 3.616 1.365 6.087 1.599 2.471.235 6.545.355 12.224.355 6.902 0 12.031-.215 15.408-.627 3.378-.417 5.939-1.379 7.685-2.871 3.223-2.927 5.081-7.305 6.981-16.426l4.996-26.708c.725-5.105 1.054-6.839 1-9.472-.085-3.647-.212-5.551-1.779-6.674-1.508-1.154-3.619-1.883-6.329-2.197-2.715-.315-7.337-.47-13.889-.47Zm67.376 78.575c-7.893 0-16.269-.506-20.906-1.513-4.637-1.011-8.008-2.784-10.125-5.319-2.616-2.973-2.133-7.218-2.498-13.025.154-4.647.731-9.304 1.471-13.682l4.778-25.366c1-5.438 2.414-10.357 4.25-14.763 1.831-4.401 4.411-8.072 7.733-10.998 1.9-1.856 4.398-3.321 7.488-4.41 3.081-1.08 6.601-1.791 10.539-2.123 3.936-.337 8.775-.507 14.512-.507 4.334 0 8.231.149 11.686.448 3.465.299 6.495.84 9.108 1.63 2.61.787 4.827 1.968 6.642 3.53 3.293 3.024 5.017 7.779 5.165 14.27.064 2.615-.332 7.107-1.175 13.479l-4.875 25.477c-2.64 14.48-5.793 23.986-13.674 28.521-3.202 1.791-7.051 2.963-11.563 3.518-4.51.556-12.101.833-18.556.833Zm14.955-78.575c-6.017 0-10.325.116-12.913.341-2.589.22-4.818.705-6.691 1.453a12.278 12.278 0 0 0-3.872 2.542c-1.139 1.111-2.278 2.966-3.414 5.56-1.129 2.603-2.123 3.976-2.969 8.367l-5.404 28.969c-.619 4.287-1.006 5.637-1.154 8.319.163 2.402.556 4.159 1.196 5.273.641 1.117 1.592 2.005 2.837 2.667 1.589.83 3.615 1.365 6.086 1.599 2.468.235 6.546.355 12.222.355 6.905 0 12.034-.215 15.411-.627 3.38-.417 5.939-1.379 7.685-2.871 3.223-2.927 5.08-7.305 6.98-16.426l4.997-26.708c.724-5.105 1.054-6.839.999-9.472-.084-3.647-.211-5.551-1.779-6.674-1.507-1.154-3.619-1.883-6.328-2.197-2.716-.315-7.34-.47-13.889-.47Z" style="fill:#fff" transform="scale(.44 .43947)"/>
</svg>

<?xml version="1.0" encoding="utf-8"?>
<svg version="1.1" viewBox="0 0 264 45" xmlns="http://www.w3.org/2000/svg">
  <g transform="matrix(0.44, 0, 0, 0.439467, 0, 0.000376)">
    <path d="M 25.334 0.029 L 84.442 102.396 L 164.661 102.396 L 105.553 0.029 L 25.334 0.029 Z M 38 6.426 L 99.219 6.426 L 149.703 93.866 L 88.481 93.866 L 38 6.426 Z" style="fill: rgb(255, 255, 255);"/>
    <path d="M 46.467 54.903 L 0 102.396 L 73.888 102.396 L 46.467 54.903 Z M 43.981 68.276 L 61.222 95.999 L 16.888 95.999 L 43.981 68.276 Z" style="fill: rgb(255, 255, 255);"/>
    <path d="M 141.517 47.488 L 187.984 -0.001 L 114.096 -0.001 L 141.517 47.488 Z M 144.003 34.122 L 126.761 6.398 L 171.092 6.398 L 144.003 34.122 Z" style="fill: rgb(255, 255, 255);"/>
    <path d="M 200.725 66.682 C 200.613 66.53 200.374 67.839 200.009 70.598 C 199.643 73.356 199.438 75.41 199.402 76.747 C 199.782 79.607 200.746 79.628 202.311 81.07 C 203.613 81.88 204.724 81.653 207.853 82.008 C 210.986 82.371 229.626 82.377 232.78 82.023 C 235.924 81.676 238.555 81.242 240.274 80.098 C 243.624 77.974 245.895 74.913 247.086 66.655 C 247.937 62.197 248.309 61.052 248.209 58.95 C 248.082 56.133 246.663 54.241 243.947 53.29 C 241.232 52.337 237.269 52.798 232.864 52.798 L 224.165 52.798 C 214.813 52.798 209.149 52.84 206.349 54.797 C 203.159 56.948 201.894 59.814 200.725 66.682 Z M 267.596 33.778 L 254.353 33.778 C 254.797 30.555 254.676 28.4 254.586 26.432 C 254.495 24.427 254.29 22.669 253.39 22.025 C 251.505 20.384 243.82 20.53 235.643 20.53 L 227.995 20.53 C 219.861 20.53 215.103 20.482 212.632 22.331 C 209.439 24.839 207.509 28.678 206.842 33.841 L 204.688 42.718 C 204.688 42.718 206.123 40.542 209.346 40.195 C 215.003 39.575 224.425 40.152 227.965 40.152 C 236.592 40.302 243.721 39.789 248.357 40.554 C 252.994 41.333 258.042 42.34 260.455 44.985 C 262.588 47.195 263.754 50.588 263.965 55.157 C 264.107 58.172 263.515 63.1 262.198 69.923 C 261.461 73.216 260.603 76.188 259.618 78.825 C 258.64 81.467 257.286 83.921 255.555 86.182 C 253.834 88.443 251.78 92.359 249.393 93.668 C 245.63 95.609 240.803 95.481 236.438 95.999 C 232.076 96.518 225.08 95.999 218.151 95.999 C 211.965 95.999 205.688 96.142 201.184 95.603 C 196.674 95.062 192.959 93.744 190.038 91.657 C 186.47 89.032 184.465 84.696 184.036 78.654 C 184.015 75.532 184.359 71.986 185.069 67.998 L 192.451 28.864 C 193.853 20.295 196.448 13.615 202.619 9.633 C 206.053 7.473 210.219 6.044 215.118 5.348 C 220.021 4.643 228.107 4.296 235.163 4.296 L 246.013 4.296 C 253.39 4.296 255.444 5.291 260.615 7.274 C 265.786 9.258 268.511 13.215 268.786 19.154 C 268.871 20.887 268.469 28.608 267.596 33.778 Z" style="fill: rgb(255, 255, 255);"/>
    <path d="M 318.479 16.804 C 309.776 16.804 301.85 17.204 298.932 18.001 C 296.08 18.803 294.292 18.733 293.005 20.793 C 291.725 22.856 290.909 25.016 290.559 27.284 C 290.205 29.545 289.888 32.587 289.613 36.398 C 289.888 38.687 290.613 40.264 291.788 41.116 C 294.039 42.554 301.928 42.682 312.174 42.682 C 321.351 42.682 328.196 42.489 331.784 40.918 C 333.304 40.314 334.615 38.95 335.711 36.832 C 336.817 34.705 337.484 33.154 338.267 29.154 C 338.702 26.731 338.892 24.683 338.859 22.999 C 338.807 20.857 338.152 19.435 336.892 18.724 C 335.509 17.958 333.388 17.445 330.54 17.188 C 327.682 16.933 323.665 16.804 318.479 16.804 Z M 340.692 48.553 C 346.148 50.814 346.148 56.133 346.29 62.252 C 346.311 63.115 346.513 67.768 346.232 69.383 C 345.951 70.988 346.042 72.228 345.945 72.746 C 344.74 78.361 344.347 80.836 342.468 84.156 C 340.59 87.482 339.484 89.863 336.207 91.642 C 333.349 93.277 329.724 94.413 325.341 95.047 C 320.949 95.679 313.259 95.999 306.484 95.999 L 297.73 95.999 C 290.151 95.999 284.224 95.722 279.947 95.169 C 275.676 94.614 273.157 92.622 270.644 90.299 C 268.272 88.209 266.022 83.133 265.632 78.242 C 265.759 75.96 266.161 74.794 266.829 70.494 C 267.711 66.521 267.919 63.319 268.617 61.187 C 269.315 59.063 270.707 56.558 272.242 54.604 C 273.767 52.657 276.026 51.227 278.703 49.685 C 280.349 48.733 280.841 48.37 279.159 46.948 C 277.307 45.391 276.815 43.933 276.295 42.028 C 276.026 41.433 275.887 35.632 275.857 35.441 C 276.676 22.196 280.107 15.45 286.251 10.353 C 289.861 7.225 291.453 5.369 299.461 4.793 C 303.569 4.457 314.836 4.296 320.59 4.296 C 328.528 4.296 336.246 4.466 339.532 4.809 C 342.42 5.232 344.924 5.858 347.063 6.676 C 349.205 7.5 348.984 8.9 350.615 10.884 C 352.047 12.712 352.805 15.611 352.899 19.578 C 352.959 22.315 352.784 25.168 352.364 28.144 C 351.947 31.117 351.18 33.982 350.062 36.75 C 348.951 39.511 347.507 41.717 345.734 43.374 C 343.511 45.819 343.822 47.534 340.877 48.507 C 340.245 48.721 339.907 48.572 339.922 48.471 C 339.928 48.391 340.182 48.339 340.692 48.553 Z M 309.598 54.46 C 304.004 54.46 298.283 54.439 295.265 54.782 C 292.247 55.123 289.776 55.776 287.84 56.738 C 286.061 57.546 284.632 59.011 283.548 61.132 C 282.457 63.256 281.5 66.213 280.663 70.003 C 279.953 74.397 280.044 75.27 279.911 76.549 C 280.18 78.88 280.663 80.253 282.409 81.028 C 284.161 81.803 286.68 83.156 290.148 83.305 C 292.794 83.592 299.699 83.738 306.632 83.738 C 313.83 83.738 319.472 84.242 323.378 82.771 C 325.221 81.952 327.253 81.724 328.422 79.622 C 329.598 77.521 330.105 75.349 330.999 71.296 C 331.709 68.196 332.047 65.767 332.005 64.003 C 331.957 61.998 331.401 58.337 330.322 57.29 C 329.431 56.274 327.438 55.52 324.357 55.022 C 321.273 54.519 315.89 54.46 309.598 54.46 Z" style="fill: rgb(255, 255, 255);"/>
    <path d="M 385.488 95.999 C 377.596 95.999 369.222 95.493 364.583 94.486 C 359.946 93.475 356.578 91.702 354.457 89.167 C 351.842 86.194 352.325 81.949 351.959 76.142 C 352.113 71.495 352.693 66.838 353.43 62.46 L 358.209 37.094 C 359.209 31.656 360.623 26.737 362.459 22.331 C 364.29 17.93 366.872 14.259 370.192 11.333 C 372.095 9.477 374.59 8.012 377.68 6.923 C 380.764 5.843 384.283 5.132 388.222 4.8 C 392.155 4.463 396.997 4.293 402.73 4.293 C 407.065 4.293 410.965 4.442 414.42 4.741 C 417.882 5.04 420.915 5.581 423.524 6.371 C 426.137 7.158 428.351 8.339 430.167 9.901 C 433.462 12.925 435.184 17.68 435.332 24.171 C 435.396 26.786 435.003 31.278 434.157 37.65 L 429.282 63.127 C 426.645 77.607 423.488 87.113 415.607 91.648 C 412.408 93.439 408.557 94.611 404.047 95.166 C 399.534 95.722 391.944 95.999 385.488 95.999 Z M 400.444 17.424 C 394.427 17.424 390.122 17.54 387.53 17.765 C 384.942 17.985 382.712 18.47 380.84 19.218 C 379.402 19.807 378.115 20.659 376.967 21.76 C 375.828 22.871 374.69 24.726 373.554 27.32 C 372.424 29.923 371.43 31.296 370.585 35.687 L 365.181 64.656 C 364.564 68.943 364.175 70.293 364.027 72.975 C 364.19 75.377 364.583 77.134 365.223 78.248 C 365.863 79.365 366.815 80.253 368.059 80.915 C 369.648 81.745 371.678 82.28 374.146 82.514 C 376.617 82.749 380.692 82.869 386.371 82.869 C 393.273 82.869 398.402 82.654 401.779 82.242 C 405.159 81.825 407.717 80.863 409.463 79.371 C 412.686 76.444 414.544 72.066 416.444 62.945 L 421.44 36.237 C 422.165 31.132 422.494 29.398 422.44 26.765 C 422.355 23.118 422.229 21.214 420.661 20.091 C 419.154 18.937 417.042 18.208 414.333 17.894 C 411.617 17.579 406.995 17.424 400.444 17.424 Z" style="fill: rgb(255, 255, 255);"/>
    <path d="M 467.819 95.999 C 459.926 95.999 451.553 95.493 446.913 94.486 C 442.277 93.475 438.909 91.702 436.788 89.167 C 434.172 86.194 434.656 81.949 434.29 76.142 C 434.447 71.495 435.021 66.838 435.761 62.46 L 440.54 37.094 C 441.54 31.656 442.953 26.737 444.79 22.331 C 446.62 17.93 449.203 14.259 452.526 11.333 C 454.426 9.477 456.924 8.012 460.011 6.923 C 463.095 5.843 466.611 5.132 470.553 4.8 C 474.486 4.463 479.328 4.293 485.061 4.293 C 489.396 4.293 493.295 4.442 496.751 4.741 C 500.213 5.04 503.245 5.581 505.858 6.371 C 508.468 7.158 510.682 8.339 512.497 9.901 C 515.793 12.925 517.515 17.68 517.666 24.171 C 517.729 26.786 517.334 31.278 516.488 37.65 L 511.612 63.127 C 508.975 77.607 505.822 87.113 497.941 91.648 C 494.736 93.439 490.891 94.611 486.378 95.166 C 481.865 95.722 474.274 95.999 467.819 95.999 Z M 482.774 17.424 C 476.757 17.424 472.45 17.54 469.861 17.765 C 467.272 17.985 465.04 18.47 463.167 19.218 C 461.733 19.807 460.446 20.659 459.298 21.76 C 458.159 22.871 457.02 24.726 455.885 27.32 C 454.755 29.923 453.761 31.296 452.915 35.687 L 447.511 64.656 C 446.892 68.943 446.505 70.293 446.357 72.975 C 446.521 75.377 446.913 77.134 447.554 78.248 C 448.194 79.365 449.146 80.253 450.39 80.915 C 451.979 81.745 454.006 82.28 456.477 82.514 C 458.948 82.749 463.022 82.869 468.701 82.869 C 475.603 82.869 480.732 82.654 484.109 82.242 C 487.487 81.825 490.048 80.863 491.794 79.371 C 495.017 76.444 496.875 72.066 498.775 62.945 L 503.771 36.237 C 504.496 31.132 504.825 29.398 504.771 26.765 C 504.686 23.118 504.559 21.214 502.992 20.091 C 501.484 18.937 499.373 18.208 496.663 17.894 C 493.948 17.579 489.326 17.424 482.774 17.424 Z" style="fill: rgb(255, 255, 255);"/>
    <path d="M 550.15 95.999 C 542.257 95.999 533.881 95.493 529.244 94.486 C 524.607 93.475 521.236 91.702 519.119 89.167 C 516.503 86.194 516.986 81.949 516.621 76.142 C 516.775 71.495 517.352 66.838 518.092 62.46 L 522.87 37.094 C 523.87 31.656 525.284 26.737 527.12 22.331 C 528.951 17.93 531.531 14.259 534.853 11.333 C 536.753 9.477 539.251 8.012 542.341 6.923 C 545.422 5.843 548.942 5.132 552.88 4.8 C 556.816 4.463 561.655 4.293 567.392 4.293 C 571.726 4.293 575.623 4.442 579.078 4.741 C 582.543 5.04 585.573 5.581 588.186 6.371 C 590.796 7.158 593.013 8.339 594.828 9.901 C 598.121 12.925 599.845 17.68 599.993 24.171 C 600.057 26.786 599.661 31.278 598.818 37.65 L 593.943 63.127 C 591.303 77.607 588.15 87.113 580.269 91.648 C 577.067 93.439 573.218 94.611 568.706 95.166 C 564.196 95.722 556.605 95.999 550.15 95.999 Z M 565.105 17.424 C 559.088 17.424 554.78 17.54 552.192 17.765 C 549.603 17.985 547.374 18.47 545.501 19.218 C 544.063 19.807 542.776 20.659 541.629 21.76 C 540.49 22.871 539.351 24.726 538.215 27.32 C 537.086 29.923 536.092 31.296 535.246 35.687 L 529.842 64.656 C 529.223 68.943 528.836 70.293 528.688 72.975 C 528.851 75.377 529.244 77.134 529.884 78.248 C 530.525 79.365 531.476 80.253 532.721 80.915 C 534.31 81.745 536.336 82.28 538.807 82.514 C 541.275 82.749 545.353 82.869 551.029 82.869 C 557.934 82.869 563.063 82.654 566.44 82.242 C 569.82 81.825 572.379 80.863 574.125 79.371 C 577.348 76.444 579.205 72.066 581.105 62.945 L 586.102 36.237 C 586.826 31.132 587.156 29.398 587.101 26.765 C 587.017 23.118 586.89 21.214 585.322 20.091 C 583.815 18.937 581.703 18.208 578.994 17.894 C 576.278 17.579 571.654 17.424 565.105 17.424 Z" style="fill: rgb(255, 255, 255);"/>
  </g>
</svg>
